packages/assets/static/images/icons/lighthouse.svg

<svg width="24" height="24" viewBox="0 0 24 24" xmlns="http://www.w3.org/2000/svg">
<path d="M20.625 8.62479C20.3266 8.62479 20.0405 8.74331 19.8295 8.95429C19.6185 9.16527 19.5 9.45142 19.5 9.74979V10.4998H18.0815L17.6193 5.88729C17.5925 5.60577 17.4606 5.3447 17.25 5.15604L13.2281 1.58322L13.2 1.55979C12.8631 1.27916 12.4384 1.12549 12 1.12549C11.5615 1.12549 11.1369 1.27916 10.8 1.55979L10.7718 1.58322L6.74997 5.15604C6.53806 5.34285 6.40419 5.60255 6.37497 5.88353L5.91841 10.4998H4.49997V9.74979C4.49997 9.45142 4.38144 9.16527 4.17046 8.95429C3.95949 8.74331 3.67334 8.62479 3.37497 8.62479C3.0766 8.62479 2.79045 8.74331 2.57947 8.95429C2.3685 9.16527 2.24997 9.45142 2.24997 9.74979V11.6248C2.24997 11.9232 2.3685 12.2093 2.57947 12.4203C2.79045 12.6313 3.0766 12.7498 3.37497 12.7498H5.69247L4.88341 20.8217C4.85859 21.0817 4.88839 21.3441 4.97091 21.592C5.05342 21.8399 5.18683 22.0678 5.36257 22.2611C5.53831 22.4544 5.75251 22.6088 5.99143 22.7145C6.23035 22.8202 6.48872 22.8748 6.74997 22.8748H17.25C17.5116 22.8747 17.7703 22.8199 18.0094 22.7139C18.2486 22.6079 18.4629 22.453 18.6386 22.2592C18.8143 22.0653 18.9476 21.8369 19.0297 21.5885C19.1118 21.3402 19.1411 21.0773 19.1156 20.817L18.3075 12.7498H20.625C20.9233 12.7498 21.2095 12.6313 21.4205 12.4203C21.6314 12.2093 21.75 11.9232 21.75 11.6248V9.74979C21.75 9.45142 21.6314 9.16527 21.4205 8.95429C21.2095 8.74331 20.9233 8.62479 20.625 8.62479ZM12 3.50229L13.5431 4.87479H10.4568L12 3.50229ZM8.51809 7.12479H15.4818L15.8203 10.4998H13.125V9.74979C13.125 9.45142 13.0064 9.16527 12.7955 8.95429C12.5845 8.74331 12.2983 8.62479 12 8.62479C11.7016 8.62479 11.4155 8.74331 11.2045 8.95429C10.9935 9.16527 10.875 9.45142 10.875 9.74979V10.4998H8.17966L8.51809 7.12479ZM7.16434 20.6248L7.46528 17.6248H16.5347L16.8356 20.6248H7.16434ZM16.3125 15.3748H7.68747L7.94997 12.7498H16.0425L16.3125 15.3748Z"/>
</svg>

<svg viewBox="0 0 24 24" xmlns="http://www.w3.org/2000/svg" aria-hidden="true" fill="currentColor" height="24px" width="24px"><path d="M20.625 8.625A1.125 1.125 0 0 0 19.5 9.75v.75h-1.419l-.462-4.613a1.13 1.13 0 0 0-.369-.731l-4.022-3.573-.028-.023a1.875 1.875 0 0 0-2.4 0l-.028.023L6.75 5.156a1.13 1.13 0 0 0-.375.728L5.918 10.5H4.5v-.75a1.125 1.125 0 0 0-2.25 0v1.875a1.125 1.125 0 0 0 1.125 1.125h2.317l-.809 8.072a1.875 1.875 0 0 0 1.867 2.053h10.5a1.876 1.876 0 0 0 1.866-2.058l-.808-8.067h2.317a1.125 1.125 0 0 0 1.125-1.125V9.75a1.125 1.125 0 0 0-1.125-1.125M12 3.502l1.543 1.373h-3.086zM8.518 7.125h6.964l.338 3.375h-2.695v-.75a1.125 1.125 0 0 0-2.25 0v.75H8.18zm-1.354 13.5.301-3h9.07l.3 3zm9.149-5.25H7.687l.263-2.625h8.093z"/></svg>
